X:1
T:We Never Mention Aunt Clara
M:3/4
L:1/4
K:G
 D| D G G| G A3/2 G/2| ^F A A| A2 D| A A3/2 A/2| A d c| B3-| B zB/2-c/2|\
 d d d| c B3/2 A/2| G E E| E2 c| B D B| A C A| G3-| G D F| G2 G| G A3/2 G/2|\
 F A2-| A z D| A A A| A d3/2 c/2| B3-| B B c| d d d| c B3/2 A/2| G E2-|\
 E z c/2c/2| B D B| A C A| G3-| G2||
